X: 8
T:Gorymdaith Capten Llwyd
T:Captain Lloyd's March
M:6/8
L:1/8
Q:130
S:Cadw Twmpath Collection
R:Jig
A:Wales
N:More correctly, the English title should
N:be "Captain Lloyd's Processional".
Z:brian_martin12345@yahoo.com
K:D
a|afdd2f|ecAA2A|Bcda2f|f3e2a|
afdd2f|ecAA2A|Baf edc|d3d2:||
d|dff faa|geee2c|cee egg|fddd2a|
afff2a|geee2a|faf gec|dddd2:||
